X: 276
T:Low Road to Glin
M:4/4
L:1/8
Q:100
Z:Gerry Strong
K:D
|:~F2 AF DFAF|~F2 AF EA, ~A,2|~F2 AF DEFA|B2 AF EA,CE|!
~F2 AF DFAF|~F2 AF EA, ~A,2|~F2 AF DEFA|1B2 AF D3 E:|2B2 AF D3 e|!
|:f2 df efdf|afdf eB ~B2|~f2 df af ~f2|bfaf efde|!
fgaf {f}g2 fe|dfed BcdB|~F2 AF DEFA|1B2 AF D3 e:|2B2 AF  D4||

